pdp-rediesign/img/common/car.svg

<svg width="35" height="27" viewBox="0 0 35 27" fill="none" xmlns="http://www.w3.org/2000/svg">
<path d="M26.4342 17.0454C24.0015 17.0454 22.0225 19.166 22.0225 21.7727C22.0225 24.3794 24.0015 26.5 26.4342 26.5C28.8673 26.5 30.846 24.3794 30.846 21.7727C30.846 19.166 28.8669 17.0454 26.4342 17.0454ZM26.4342 24.1364C25.2177 24.1364 24.2283 23.0762 24.2283 21.7727C24.2283 20.4692 25.2177 19.4091 26.4342 19.4091C27.6507 19.4091 28.6401 20.4692 28.6401 21.7727C28.6401 23.0763 27.6507 24.1364 26.4342 24.1364Z" fill="#344D57"/>
<path d="M11.36 17.0454C8.9273 17.0454 6.94824 19.166 6.94824 21.7727C6.94824 24.3794 8.9273 26.5 11.36 26.5C13.7927 26.5 15.7718 24.3794 15.7718 21.7727C15.7718 19.166 13.7927 17.0454 11.36 17.0454ZM11.36 24.1364C10.1435 24.1364 9.15412 23.0762 9.15412 21.7727C9.15412 20.4692 10.1435 19.4091 11.36 19.4091C12.5762 19.4091 13.5659 20.4692 13.5659 21.7727C13.5659 23.0763 12.5765 24.1364 11.36 24.1364Z" fill="#344D57"/>
<path d="M29.4048 3.51459C29.2173 3.11553 28.8361 2.86377 28.4192 2.86377H22.6104V5.22745H27.739L30.7423 11.6283L32.7136 10.5662L29.4048 3.51459Z" fill="#344D57"/>
<path d="M23.1248 20.6305H14.7793V22.994H23.1248V20.6305Z" fill="#344D57"/>
<path d="M8.05136 20.6305H4.2279C3.61869 20.6305 3.125 21.1596 3.125 21.8123C3.125 22.465 3.61876 22.994 4.2279 22.994H8.05143C8.66064 22.994 9.15433 22.465 9.15433 21.8123C9.15433 21.1595 8.66057 20.6305 8.05136 20.6305Z" fill="#344D57"/>
<path d="M34.7682 13.4054L32.5987 10.4115C32.3903 10.1231 32.0686 9.9545 31.7278 9.9545H23.7131V1.68178C23.7131 1.029 23.2193 0.5 22.6102 0.5H4.2279C3.61869 0.5 3.125 1.02907 3.125 1.68178C3.125 2.3345 3.61876 2.86357 4.2279 2.86357H21.5072V11.1363C21.5072 11.7891 22.001 12.3181 22.6101 12.3181H31.1877L32.7939 14.5351V20.6302H29.7424C29.1332 20.6302 28.6395 21.1593 28.6395 21.812C28.6395 22.4648 29.1333 22.9938 29.7424 22.9938H33.8968C34.506 22.9938 34.9997 22.4647 34.9998 21.812V14.1303C34.9998 13.8679 34.9181 13.6127 34.7682 13.4054Z" fill="#344D57"/>
<path d="M7.9782 14.6425H2.90466C2.29545 14.6425 1.80176 15.1716 1.80176 15.8243C1.80176 16.4771 2.29551 17.0061 2.90466 17.0061H7.97813C8.58735 17.0061 9.08104 16.4771 9.08104 15.8243C9.0811 15.1716 8.58735 14.6425 7.9782 14.6425Z" fill="#344D57"/>
<path d="M10.5146 9.99359H1.10291C0.493758 9.99359 0 10.5227 0 11.1754C0 11.8282 0.493758 12.3572 1.10291 12.3572H10.5146C11.1239 12.3572 11.6176 11.8282 11.6176 11.1754C11.6176 10.5227 11.1239 9.99359 10.5146 9.99359Z" fill="#344D57"/>
<path d="M12.3164 5.34528H2.90466C2.29545 5.34528 1.80176 5.87438 1.80176 6.52714C1.80176 7.17997 2.29552 7.709 2.90466 7.709H12.3164C12.9256 7.709 13.4193 7.17989 13.4193 6.52714C13.4194 5.87438 12.9256 5.34528 12.3164 5.34528Z" fill="#344D57"/>
</svg>

<svg width="35" height="27" fill="none" xmlns="http://www.w3.org/2000/svg"><path d="M26.434 17.045c-2.433 0-4.412 2.121-4.412 4.728 0 2.606 1.98 4.727 4.412 4.727 2.433 0 4.412-2.12 4.412-4.727s-1.98-4.728-4.412-4.728zm0 7.091c-1.217 0-2.206-1.06-2.206-2.363 0-1.304.99-2.364 2.206-2.364s2.206 1.06 2.206 2.364c0 1.303-.99 2.363-2.206 2.363zM11.36 17.045c-2.433 0-4.412 2.121-4.412 4.728 0 2.606 1.98 4.727 4.412 4.727 2.433 0 4.412-2.12 4.412-4.727s-1.98-4.728-4.412-4.728zm0 7.091c-1.217 0-2.206-1.06-2.206-2.363 0-1.304.99-2.364 2.206-2.364s2.206 1.06 2.206 2.364c0 1.303-.99 2.363-2.206 2.363zM29.405 3.515a1.098 1.098 0 00-.986-.651H22.61v2.363h5.13l3.002 6.401 1.972-1.062-3.31-7.051z" fill="#BCC4C7"/><path d="M23.125 20.63h-8.346v2.364h8.346v-2.363zm-15.073 0H4.228c-.61 0-1.103.53-1.103 1.182 0 .653.494 1.182 1.103 1.182h3.824c.609 0 1.103-.529 1.103-1.182 0-.652-.494-1.181-1.103-1.181zm26.716-7.225L32.6 10.412a1.077 1.077 0 00-.871-.458h-8.015V1.682C23.713 1.029 23.22.5 22.61.5H4.228c-.61 0-1.103.53-1.103 1.182 0 .652.494 1.182 1.103 1.182h17.28v8.272c0 .653.493 1.182 1.102 1.182h8.578l1.606 2.217v6.095h-3.051c-.61 0-1.103.53-1.103 1.182 0 .653.494 1.182 1.103 1.182h4.154c.61 0 1.103-.53 1.103-1.182V14.13c0-.262-.082-.517-.232-.725zm-26.79 1.238H2.904c-.609 0-1.103.529-1.103 1.181 0 .653.494 1.182 1.103 1.182h5.074c.61 0 1.103-.529 1.103-1.182 0-.652-.494-1.181-1.103-1.181zm2.537-4.649H1.103c-.61 0-1.103.529-1.103 1.181 0 .653.494 1.182 1.103 1.182h9.412c.609 0 1.103-.529 1.103-1.181 0-.653-.494-1.182-1.103-1.182z" fill="#BCC4C7"/><path d="M12.316 5.345H2.904c-.609 0-1.103.53-1.103 1.182 0 .653.494 1.182 1.103 1.182h9.412c.61 0 1.103-.53 1.103-1.182 0-.653-.494-1.182-1.103-1.182z" fill="#BCC4C7"/></svg>
